!!!SOCIAL_FUNCTION:	dream songs
!!!PDT:	1913
!!!OTL: No_130_Dream_Song.krn
!!!REG: Great_Lakes
!!!LANG: Non-Tone
!!!LING_GROUP: Algonquin
**kern	**kern
*staff2	*staff1
=1-	=1-
*clefF4	*clefG2
*k[b-e-a-d-g-]	*k[b-e-a-d-g-]
*M3/8	*M3/8
8GG-/L	8.a-/L
8GG-/	.
.	16b-/K
8GG-/J	8a-/J
=2||	=2||
*M5/8	*M5/8
3...r	4.f/
.	8e-/L
.	8d-/J
=3||	=3||
*M3/8	*M3/8
4.r	4.f/
=4	=4
4.r	8.e-/L
.	16f/K
.	8e-/J
=5	=5
4.r	8.d-/L
.	16d-/K
.	[8d-/J
=6	=6
4.r	8.d-/L]
.	16d-/K
.	[8d-/J
=7	=7
4.r	4.d-/]
=8!|:	=8!|:
4.r	8r
.	8d-/L
.	8d-/J
=9	=9
4.r	8.f/L
.	16g-/K
.	[8f/J
=10	=10
4.r	8f/L]
.	8e-/
.	8d-/J
=11	=11
4.r	8.f/L
.	16g-/K
.	8f/J
=12||	=12||
*M2/8	*M2/8
4r	4f/
=13	=13
4r	4d-/
=14||	=14||
*M5/8	*M5/8
3...r	8d-/
.	4B-/
.	8c/L
.	8B-/J
*	*clefF4
=15	=15
3...r	4A-\
.	8.F\L
.	16F\K
.	[8F\J
=16	=16
3...r	4F\_
.	8.F\L]
.	16F\K
.	[8F\J
=17||	=17||
*M3/8	*M3/8
4.r	4.F\]
=18	=18
4.r	8A-\
.	4A-\
=19||	=19||
*M5/8	*M5/8
3...r	4.F\
.	8E-\L
.	8D-\J
=20||	=20||
*M4/8	*M4/8
2r	4F\
.	8G-\
.	8F\
=21	=21
2r	4E-\
.	8F\
.	8E-\
=22||	=22||
*M3/8	*M3/8
4.r	8.D-\L
.	16D-\K
.	[8D-\J
=23	=23
4.r	4.D-\]
==:|!	==:|!
*-	*-
